public/formular-icons/english/lower-f.svg

<svg style="vertical-align:-.464ex" xmlns="http://www.w3.org/2000/svg" width="1.244ex" height="2.059ex" viewBox="0 -705 550 910" xmlns:xlink="http://www.w3.org/1999/xlink"><defs><path id="a" d="M118-162q2 0 6-2t11-3 12-1q13 0 24 13t16 29q10 27 34 153t46 240 22 115v3h-47q-47 0-50 2-4 3-4 10l7 28q2 5 8 5t47 1q48 0 48 1 0 2 9 50t12 58q37 165 146 165 37-2 61-22t24-53q0-36-21-52t-42-17q-44 0-44 42 0 19 11 33t24 21l9 5q-16 6-30 6-12 0-23-10t-15-28q-7-29-16-78t-16-83-7-36q0-2 55-2 45 0 52-1t11-6q1-4-2-17t-5-16q-2-5-9-5t-54-1h-56l-23-122Q301 15 282-47q-27-85-70-126-37-32-73-32-32 0-58 19t-26 54q0 37 21 54t42 17q44 0 44-42 0-19-11-33t-24-21l-9-5Z"/></defs><g stroke="currentColor" fill="currentColor" stroke-width="0"><use data-c="1D453" xlink:href="#a" transform="scale(1 -1)"/></g></svg>

<svg style="vertical-align: -0.464ex" xmlns="http://www.w3.org/2000/svg" width="1.244ex" height="2.059ex" role="img" focusable="false" viewBox="0 -705 550 910" xmlns:xlink="http://www.w3.org/1999/xlink"><defs><path id="MJX-43-TEX-I-1D453" d="M118 -162Q120 -162 124 -164T135 -167T147 -168Q160 -168 171 -155T187 -126Q197 -99 221 27T267 267T289 382V385H242Q195 385 192 387Q188 390 188 397L195 425Q197 430 203 430T250 431Q298 431 298 432Q298 434 307 482T319 540Q356 705 465 705Q502 703 526 683T550 630Q550 594 529 578T487 561Q443 561 443 603Q443 622 454 636T478 657L487 662Q471 668 457 668Q445 668 434 658T419 630Q412 601 403 552T387 469T380 433Q380 431 435 431Q480 431 487 430T498 424Q499 420 496 407T491 391Q489 386 482 386T428 385H372L349 263Q301 15 282 -47Q255 -132 212 -173Q175 -205 139 -205Q107 -205 81 -186T55 -132Q55 -95 76 -78T118 -61Q162 -61 162 -103Q162 -122 151 -136T127 -157L118 -162Z"></path></defs><g stroke="currentColor" fill="currentColor" stroke-width="0" transform="scale(1,-1)"><g data-mml-node="math"><g data-mml-node="mi"><use data-c="1D453" xlink:href="#MJX-43-TEX-I-1D453"></use></g></g></g></svg>
